X: 16745
T: Hare In The Corn
R: jig
M: 6/8
K: Dmajor
|:G|FDE F2G|AdB =cBA|dcA d2e|fed cAG|
FDE F2G|AdB =cBA|dcd EFG|AFD D2:|
g|:fdd efg|afd cBA|FGA BAG|=cBc A2e|fdd efg|
afd cBA|1 gfg bag|fdd d2e:|2 =cBc EFG|AFD D2||

